X:1
T:Title
%%score ( 1 2 ) { ( 3 4 ) | 5 }
L:1/8
M:4/4
K:C
V:1 treble nm="Grand Piano, Unnamed-000"
V:2 treble 
V:3 bass nm="Choir Pad, Passion Chorale"
V:4 bass 
V:5 bass 
V:1
 z2 A2 z2 F2 | z2 D4 z2 | [EB]2 [Ec]2 [Ec]2 BA | B-[DB] [CA]6 | z2 A2 z2 F2 | z2 D4 z2 | %6
 [EB]2 [Ec]2 [Ec]2 BA | B-[DB] [CA]6 | [Ec]2 [DB]2 G-[CG] [CA]2 | [FB]2 c2- [Ec-][Dc] [Ec]2 | %10
 [EG]2 A-[DA] [EG]2 [EA]2 | [DF]2 [^CE]6 | [Dc]2 [DB]2 [Dd]2 c-[^Fc] | [GB]2 A2- [^FA]2 [GB]2 | %14
 z2 F2 z4 | [B,G]2 [CE]6- | [CE]2 z2 z4 |] %17
V:2
 [CE]2 CD [EG]2 A,B, | [CE]2 C2 B,2 [CE]2 | z4 z2 E2 | .E2 z2 z4 | [CE]2 CD [EG]2 A,B, | %5
 [CE]2 C2 B,2 [CE]2 | z4 z2 E2 | .E2 z2 z4 | z4 .D2 z2 | z2 F2 z4 | z2 .E2 z4 | x8 | z4 z2 .E2 | %13
 z2 G2 z4 | [CE]2 CB, [CE]2 [CD]2 | x8 | x8 |] %17
V:3
 z G,A,B, C2 D2 | G,2 A,2 G,2 G,2 | B,2 A,2 A,2 A,2 | ^G,2 A,6 | A,A,A,B, C2 D2 | G,2 A,2 G,2 G,2 | %6
 B,2 A,2 A,2 A,2 | ^G,2 A,6 | A,G, F,2 G,2 z E, | F,G, A,2 G,F, G,2 | C_B, A,2 A,2 A,2 | %11
 A,2 z2 z4 | A,2 G,2 A,2 G,A, | B,G, E2 D2 D2 | G,2 F,2 G,2 A,2 | G,2 G,6- | G,2 z2 z4 |] %17
V:4
 A,2 z2 z4 | x8 | x8 | x8 | x8 | x8 | x8 | x8 | z4 z2 F,2 | x8 | x8 | x8 | x8 | x8 | x8 | x8 | %16
 x8 |] %17
V:5
 z2 F,2 E,2 D,2 | C,2 F,,2 G,,2 C,2 | ^G,,2 A,,B,, C,D, E,2 | E,2 A,,6 | z G, F,2 E,2 D,2 | %5
 C,2 F,,2 G,,2 C,2 | ^G,,2 A,,B,, C,D, E,2 | E,2 A,,6 | A,,2 D,2 E,2 z2 | D,2 C,4 C,2 | %10
 C,2 F,2 ^C,2 D,E, | F,G, A,6 | ^F,2 z2 F,2 E,2 | D,2 C,2 D,2 G,,2 | C,B,, A,,2 G,,2 F,,2 | %15
 G,,2 C,6- | C,2 z2 z4 |] %17

